packages/core/src/svgs/tokens/branded/MIN.svg

<svg width="24" height="24" viewBox="0 0 24 24" fill="none" xmlns="http://www.w3.org/2000/svg">
<path d="M13.2684 4.33123C13.5819 3.34391 12.7348 2.74353 12.2744 2.5634C11.3404 2.36327 10.8734 3.07041 10.7201 3.43065C10.1998 5.08505 9.05225 8.54065 8.81216 9.35452C8.5253 10.3685 9.09895 11.0556 10.0063 11.1824C10.2812 11.2176 10.5601 11.1642 10.8026 11.0297C11.045 10.8954 11.2381 10.6871 11.3538 10.4353L13.2684 4.33123Z" fill="#EFEFEF"/>
<path d="M13.3091 3.4173C12.9822 2.41666 11.9416 2.43 11.4612 2.56341C11.1541 2.69516 10.9023 2.92958 10.749 3.22651C10.5956 3.52344 10.5503 3.86446 10.6207 4.19115C11.1811 5.87225 12.3619 9.42787 12.6553 10.2418C13.0156 11.2558 14.0495 11.3692 14.8568 10.9289C15.5239 10.5687 15.4504 9.90154 15.357 9.60797L13.3091 3.4173Z" fill="#ED1650"/>
<path d="M9.85922 11.1824C10.9266 11.1957 11.2601 10.3151 11.2869 9.81482C11.2539 9.47876 11.1045 9.16476 10.8645 8.92721C10.6246 8.68965 10.3091 8.54347 9.9727 8.51396C8.17148 8.50728 4.62249 8.50062 3.74858 8.51396C2.65453 8.53398 1.9474 9.38787 2.12084 10.2952C2.25427 11.0423 2.88135 11.1757 3.18821 11.1824C4.95603 11.1891 8.7852 11.169 9.85922 11.1824Z" fill="#E5E5E5"/>
<path d="M7.87157 15.0049C8.7388 15.6587 9.57933 15.0382 9.88629 14.6447C10.3665 13.7975 9.88629 13.0436 9.58603 12.7768C7.8255 11.4726 6.05765 10.1784 4.28256 8.89421C3.38198 8.2538 2.50807 8.72078 2.11447 9.56126C1.79427 10.2552 2.22121 10.8156 2.47471 11.0089L7.87825 15.0116L7.87157 15.0049Z" fill="#CECECE"/>
<path d="M5.357 19.6213C5.00342 20.6486 5.84397 21.2624 6.31094 21.4358C7.26491 21.6359 7.83195 20.9489 7.99204 20.5818C8.57911 18.854 9.80653 15.185 10.0735 14.3378C10.4069 13.2838 9.6999 12.5901 8.77923 12.4699C8.0254 12.3765 7.61847 12.9569 7.51173 13.2571L5.357 19.6213Z" fill="#BFBFBF"/>
<path d="M5.85704 18.9941C4.98315 19.6413 5.33003 20.6218 5.61689 21.0288C6.284 21.736 7.13788 21.4958 7.48478 21.2823C8.93906 20.1883 12.0345 17.8668 12.7283 17.3197C13.5954 16.6393 13.4086 15.6654 12.7149 15.0516C12.1478 14.5379 11.4941 14.7848 11.2339 14.9716L5.85704 18.9941Z" fill="#A8A8A8"/>
<path d="M16.5303 21.1823C17.4043 21.8294 18.2382 21.2023 18.545 20.8088C19.012 19.9548 18.5316 19.2077 18.2315 18.9409C16.7571 17.8734 13.6284 15.6053 12.9013 15.0983C11.994 14.4645 11.1201 14.9381 10.7399 15.7787C10.4197 16.4725 10.8533 17.0328 11.1067 17.2263C12.5544 18.2737 15.6565 20.5351 16.5303 21.1823Z" fill="#888888"/>
<path d="M16.0298 20.5485C16.3768 21.5826 17.4107 21.5493 17.891 21.4025C18.1986 21.2526 18.4461 21.0026 18.5929 20.6935C18.7395 20.3843 18.7767 20.0344 18.6983 19.7013C18.1111 17.9668 16.8503 14.3112 16.5435 13.4839C16.1632 12.4433 15.1826 12.3231 14.382 12.7968C13.7283 13.1838 13.7617 13.8842 13.8551 14.191L16.0298 20.5485Z" fill="#7C7C7C"/>
<path d="M21.2731 11.1357C22.1537 10.5019 21.8201 9.51457 21.5399 9.10102C21.3061 8.8496 20.9931 8.68596 20.6531 8.63741C20.3132 8.58884 19.967 8.65829 19.672 8.83417C18.2043 9.90153 15.0823 12.1897 14.3818 12.7301C13.5013 13.3971 13.6814 14.3778 14.3686 14.9982C14.929 15.5119 15.5893 15.2784 15.8495 15.0916C17.2904 14.0377 20.3925 11.7694 21.2731 11.1357Z" fill="#6D6D6D"/>
<path d="M20.5656 11.1824C21.653 11.1957 21.9799 10.3551 21.9998 9.85484C21.9626 9.51317 21.8103 9.19415 21.5678 8.95047C21.3253 8.70678 21.0072 8.55284 20.6656 8.51397C18.8445 8.50063 14.9818 8.50063 14.0946 8.51397C12.9939 8.52731 12.5603 9.39454 12.7338 10.3084C12.8739 11.0556 13.561 11.1757 13.8812 11.1824C15.669 11.1957 19.4848 11.1691 20.5723 11.1824H20.5656Z" fill="#0A66EA"/>
</svg>

<svg xmlns="http://www.w3.org/2000/svg" width="24" height="24" fill="none" viewBox="0 0 24 24">
    <path fill="#EFEFEF" d="M13.268 4.331c.314-.987-.533-1.587-.994-1.768-.934-.2-1.4.507-1.554.868-.52 1.654-1.668 5.11-1.908 5.924-.287 1.013.287 1.7 1.194 1.827a1.3 1.3 0 0 0 1.348-.747z"/>
    <path fill="#ED1650" d="M13.31 3.417c-.328-1-1.368-.987-1.849-.854a1.44 1.44 0 0 0-.84 1.628c.56 1.681 1.74 5.237 2.034 6.05.36 1.015 1.395 1.128 2.202.688.667-.36.593-1.027.5-1.321z"/>
    <path fill="#E5E5E5" d="M9.86 11.182c1.067.014 1.4-.867 1.427-1.367a1.45 1.45 0 0 0-1.314-1.301c-1.802-.007-5.35-.013-6.224 0-1.094.02-1.802.874-1.628 1.781.133.747.76.88 1.067.887 1.768.007 5.597-.013 6.671 0"/>
    <path fill="#CECECE" d="M7.872 15.005c.867.654 1.707.033 2.014-.36.48-.848 0-1.601-.3-1.868a582 582 0 0 0-5.303-3.883c-.901-.64-1.775-.173-2.169.667-.32.694.107 1.255.36 1.448l5.404 4.003z"/>
    <path fill="#BFBFBF" d="M5.357 19.621c-.354 1.028.487 1.641.954 1.815.954.2 1.521-.487 1.681-.854a567 567 0 0 0 2.081-6.244c.334-1.054-.373-1.748-1.294-1.868-.754-.094-1.16.487-1.267.787z"/>
    <path fill="#A8A8A8" d="M5.857 18.994c-.874.647-.527 1.628-.24 2.035.667.707 1.52.467 1.868.253 1.454-1.094 4.55-3.415 5.243-3.962.867-.68.68-1.655-.013-2.268-.567-.514-1.22-.267-1.481-.08z"/>
    <path fill="#888" d="M16.53 21.182c.874.647 1.708.02 2.015-.373.467-.854-.013-1.601-.314-1.868-1.474-1.068-4.603-3.336-5.33-3.843-.907-.634-1.78-.16-2.161.68-.32.694.113 1.255.367 1.448 1.447 1.048 4.55 3.31 5.423 3.956"/>
    <path fill="#7C7C7C" d="M16.03 20.549c.347 1.034 1.38 1 1.861.854a1.51 1.51 0 0 0 .807-1.702c-.587-1.734-1.848-5.39-2.154-6.217-.38-1.04-1.361-1.16-2.162-.687-.654.387-.62 1.087-.527 1.394z"/>
    <path fill="#6D6D6D" d="M21.273 11.136c.88-.634.547-1.621.267-2.035a1.5 1.5 0 0 0-1.868-.267c-1.468 1.068-4.59 3.356-5.29 3.896-.88.667-.7 1.648-.013 2.268.56.514 1.22.28 1.48.094 1.441-1.054 4.543-3.323 5.424-3.956"/>
    <path fill="#0A66EA" d="M20.566 11.182c1.087.014 1.414-.827 1.434-1.327a1.515 1.515 0 0 0-1.334-1.341 533 533 0 0 0-6.571 0c-1.101.013-1.535.88-1.361 1.794.14.748.827.868 1.147.874 1.788.014 5.604-.013 6.691 0z"/>
</svg>
